svg/u1f681.svg

<svg viewBox="0 0 128 128" xmlns="http://www.w3.org/2000/svg">
  <path d="M82.02,119.67c-0.33-0.05-5.51-0.07-12.62-0.07l-4.69-15.5l-4.27,1.11l4.02,14.39 c-8.29,0-18.04,0-25.81-0.01l4.72-14.23H38.3l-4.64,14.22c-4.98-0.01-8.42-0.03-8.88-0.07c-1.9-0.16-4.19-1.58-5.14-2.13 c-0.95-0.55-2.69-2.77-4.35-0.95c-1.66,1.82,1.2,4.05,3.16,5.3c2.85,1.82,6.09,1.98,7.99,1.98c1.9,0,55.03,0.08,55.74,0 s1.66-1.19,1.66-1.98S83.27,119.85,82.02,119.67z" fill="#FEB804"/>
  <path d="M103.92,47.96c-0.71-0.08-42.77-0.71-42.77-0.71s-0.97-1.51-3.6-2.23c2.13-0.1,3.75-0.26,3.84-0.45 c0.63-1.42-2.45-3.79-7.27-3.87c-4.51-0.07-7.75,2.29-7.35,4.03c0.06,0.26,2.02,0.38,4.49,0.41c-2.55,0.79-3.7,2.28-3.7,2.28 S6.28,49.07,5.09,49.15s-2.13,0.47-2.13,1.42c0,0.95,0.55,1.74,1.58,1.74s40-1.42,40-1.42s-17.95,5.06-19.05,5.38 c-1.11,0.32-2.53,0.71-2.37,1.66c0.16,0.95,1.58,0.87,2.45,0.63s25.77-6.4,25.77-6.4v6.87c-2.12-0.01-3.86,0.05-4.11,0.24 c-0.75,0.58-1.49,3.31-1.82,5.69c-0.4,2.85-0.47,5.85-0.47,5.85l10.91,0.63l4.27-12.18c0,0-1.04-0.05-2.53-0.1v-6.54 c0,0,26.64,6.8,27.35,6.96c0.71,0.16,1.9,0.08,1.98-0.63c0.08-0.71-0.08-1.34-1.03-1.74s-21.5-6.25-21.5-6.25s37.24,0,38.9-0.08 c1.66-0.08,2.13-0.55,2.13-1.5C105.42,48.44,104.63,48.04,103.92,47.96z" fill="#5E6367"/>
  <path d="M16.64,89.07l-2.21,2.06l-3,4.27c0,0-1.5,3.95,3.32,6.96c4.82,3,10.91,5.3,31.94,4.82 c21.03-0.47,30.2-4.51,34.15-9.41c3.95-4.9,4.27-9.17,4.27-9.17l6.56-6.32l14.31,0.24c0,0,5.38,14.71,5.53,15.02 c0.16,0.32,3.87,0.32,3.87,0.32l2.77-7.83c0,0-0.4-8.78-0.16-9.72c0.24-0.95,7.27-22.93,7.12-23.72s-0.31-0.83-0.86-0.86 c-0.55-0.04-1.98,0.04-1.98,0.04L107.87,71.1l-1.14,2.61l-2.87,0.47l-20.98-1.74c0,0,0-1.8-0.53-3.41c-0.53-1.6-1.94-4.28-1.94-4.28 l-29.35,1.91l-2.05,3.17l-9.82,5.08L16.64,89.07z" fill="#FFA62D"/>
  <path d="M114.24,55.7c-0.2,0.34-6.36,15.4-6.36,15.4l7.72,19.95c0,0-0.1,0.74-0.93,0.92s-2.56-1.07-2.56-1.07 l2.69,6.94c0,0,6.6,0,6.66-0.24s-4.53-21-4.53-21.47s6.01-20.6,6.01-20.6S114.41,55.4,114.24,55.7z" fill="#FFD61C"/>
  <path d="M76.55,74.82c0,0,2.98,1.85,4.76,3.99c1.57,1.88,3.57,5.06,3.57,5.06l6.61-5.24l15.6,0.71 c0,0-0.16-3.01-0.3-3.69c-0.18-0.89-0.6-2.02-0.6-2.02l-23.34-1.61L76.55,74.82z" fill="#FFD61C"/>
  <path d="M51.06,66.66c0,0,4.94,0.69,13.4,1.19c7.09,0.42,12.33,0.77,14.53-0.36 c1.52-0.78,1.97-1.61,1.97-1.61s-2.2-4.7-3.1-5.24c-0.89-0.54-12.02-1.88-17.74-1.37C55.35,59.69,51.06,66.66,51.06,66.66z" fill="#FFD61C"/>
  <path d="M81.69,83.76c0,0-9.03-14.33-31.76-13.91c-22.72,0.43-26.78,17.49-26.78,17.49l8.1,2.49 c0,0,0.43,2.27-0.75,2.56c-1.17,0.29-11.38,0.23-12.9,0.18c-2.68-0.1-2.82-1.96-2.82-1.96s-1.46,1.11-2.22,2.32 c-0.76,1.21-1.15,2.46-1.15,2.46s0.74,2.19,4.63,3.85c3.89,1.67,14.97,3.9,30.66,3.8c15.69-0.1,29.01-3.75,32.76-9.77 C83.22,87.27,81.69,83.76,81.69,83.76z M47,92.38c-0.82,0.65-8.23,0.92-9.4-0.14c-0.94-0.85,0.07-2.66,0.07-2.66l3.28-2.05 c0,0,6.72,0.78,6.75,1.88C47.72,90.35,47.58,91.92,47,92.38z M63.48,92.75c-1.29,0.41-6.69,0.53-7.86,0.41 c-1.17-0.12-2.11-0.09-2.7-1.15c-0.59-1.06-0.23-2.84-0.23-2.84l12.92-2.44c0,0,0.01,2.08-0.12,3.44 C65.37,91.35,64.55,92.41,63.48,92.75z" fill="#FFD61C"/>
  <path d="M41.55,75.6c-0.91,0.77-4.45,13.73-3.88,13.98c0.56,0.25,9.49,0.31,10.03-0.18s1.74-13.64,1.34-14.04 C48.64,74.97,42.29,74.97,41.55,75.6z" fill="#5E6367"/>
  <path d="M53.84,75.88c-0.46,0.34-1.33,13.48-1.14,14c0.24,0.66,2.63,0.51,6.12,0.51s6.63-0.69,6.86-2.86 c0.26-2.45,0.11-6.4,0-8.06s-1.83-3.03-4.29-3.49C59.53,75.65,54.45,75.42,53.84,75.88z" fill="#5E6367"/>
  <path d="M30,94.46c-0.48-0.56-6.98-0.24-7.26,4.63c-0.17,2.97,3.49,4.74,4.29,4.69s1.37-1.89,2.17-4.46 C29.88,97.12,30.34,94.86,30,94.46z" fill="#5E6367"/>
  <path d="M16.22,89.66c0.23,0.91,14.35,0.75,15.03,0.34c0.57-0.34,5.83-17.09,5.6-17.43s-5.49,0.4-13.2,6.86 C18.9,83.41,16,88.75,16.22,89.66z" fill="#868686"/>
  <path d="M42,81.66c0.99,0.29,1.89-1.71,2.8-2.17s2.33-1.14,2.29-2c-0.06-1.03-2.92-1.83-4.06-0.91 S40.46,81.2,42,81.66z" fill="#C9C7C4"/>
  <path d="M55.44,77.66c-0.8,0.86-1.03,4.46,0.17,4.69c1.2,0.23,1.77-1.37,2.8-2.12 c1.03-0.74,2.59-1.21,2.52-2.52C60.87,76.69,56.87,76.11,55.44,77.66z" fill="#C9C7C4"/>
  <path d="M32.97,75.66c-0.78-0.71-5.08,1.89-8.12,4.74C22,83.09,19.2,86.65,20,87.72 c1.31,1.77,4.12-2.86,7.26-5.66C28.77,80.71,34.29,76.86,32.97,75.66z" fill="#C8C8C8"/>
  <path d="M107.58,63.24c-1.45,0.31,0,6.77,0.5,8.91c0.5,2.15,1.93,5.23,1.93,5.23l2.97-1.38 c0,0-0.94-4.84-1.93-7.65S108.84,62.96,107.58,63.24z" fill="#999A9D"/>
  <path d="M110.71,79.92c0,0-0.04,2.31,1.15,5.79c1.15,3.4,2.68,6.35,4.02,5.93c1.24-0.39,0.38-5.52-0.23-7.71 c-0.61-2.19-1.96-4.98-1.96-4.98L110.71,79.92z" fill="#999A9D"/>
  <path d="M110.93,75.38c-2.31,0.87-2.17,2.75-1.66,3.96c0.37,0.88,1.89,2.12,3.67,1.32 c1.38-0.62,2.24-1.84,1.55-3.73C114.05,75.7,112.76,74.69,110.93,75.38z" fill="#5E6367"/>
</svg>

<svg viewBox="0 0 128 128" xmlns="http://www.w3.org/2000/svg">
  <defs/>
  <path d="M82.02,119.67 C81.69,119.62 76.51,119.6 69.4,119.6 L64.71,104.1 L60.44,105.21 L64.46,119.6 C56.17,119.6 46.42,119.6 38.65,119.59 L43.37,105.36 L38.3,105.36 L33.66,119.58 C28.68,119.57 25.24,119.55 24.78,119.51 C22.88,119.35 20.59,117.93 19.64,117.38 C18.69,116.83 16.95,114.61 15.29,116.43 C13.63,118.25 16.49,120.48 18.45,121.73 C21.3,123.55 24.54,123.71 26.44,123.71 C28.34,123.71 81.47,123.79 82.18,123.71 C82.89,123.63 83.84,122.52 83.84,121.73 C83.84,120.94 83.27,119.85 82.02,119.67 Z" fill="#FEB804"/>
  <path d="M103.92,47.96 C103.21,47.88 61.15,47.25 61.15,47.25 C61.15,47.25 60.18,45.74 57.55,45.02 C59.68,44.92 61.3,44.76 61.39,44.57 C62.02,43.15 58.94,40.78 54.12,40.7 C49.61,40.63 46.37,42.99 46.77,44.73 C46.83,44.99 48.79,45.11 51.26,45.14 C48.71,45.93 47.56,47.42 47.56,47.42 C47.56,47.42 6.28,49.07 5.09,49.15 C3.9,49.23 2.96,49.62 2.96,50.57 C2.96,51.52 3.51,52.31 4.54,52.31 C5.57,52.31 44.54,50.89 44.54,50.89 C44.54,50.89 26.59,55.95 25.49,56.27 C24.38,56.59 22.96,56.98 23.12,57.93 C23.28,58.88 24.7,58.8 25.57,58.56 C26.44,58.32 51.34,52.16 51.34,52.16 L51.34,59.03 C49.22,59.02 47.48,59.08 47.23,59.27 C46.48,59.85 45.74,62.58 45.41,64.96 C45.01,67.81 44.94,70.81 44.94,70.81 L55.85,71.44 L60.12,59.26 C60.12,59.26 59.08,59.21 57.59,59.16 L57.59,52.62 C57.59,52.62 84.23,59.42 84.94,59.58 C85.65,59.74 86.84,59.66 86.92,58.95 C87,58.24 86.84,57.61 85.89,57.21 C84.94,56.81 64.39,50.96 64.39,50.96 C64.39,50.96 101.63,50.96 103.29,50.88 C104.95,50.8 105.42,50.33 105.42,49.38 C105.42,48.44 104.63,48.04 103.92,47.96 Z" fill="#5E6367"/>
  <path d="M16.64,89.07 L14.43,91.13 L11.43,95.4 C11.43,95.4 9.93,99.35 14.75,102.36 C19.57,105.36 25.66,107.66 46.69,107.18 C67.72,106.71 76.89,102.67 80.84,97.77 C84.79,92.87 85.11,88.6 85.11,88.6 L91.67,82.28 L105.98,82.52 C105.98,82.52 111.36,97.23 111.51,97.54 C111.67,97.86 115.38,97.86 115.38,97.86 L118.15,90.03 C118.15,90.03 117.75,81.25 117.99,80.31 C118.23,79.36 125.26,57.38 125.11,56.59 C124.96,55.8 124.8,55.76 124.25,55.73 C123.7,55.69 122.27,55.77 122.27,55.77 L107.87,71.1 L106.73,73.71 L103.86,74.18 L82.88,72.44 C82.88,72.44 82.88,70.64 82.35,69.03 C81.82,67.43 80.41,64.75 80.41,64.75 L51.06,66.66 L49.01,69.83 L39.19,74.91 L16.64,89.07 Z" fill="#FFA62D"/>
  <path d="M114.24,55.7 C114.04,56.04 107.88,71.1 107.88,71.1 L115.6,91.05 C115.6,91.05 115.5,91.79 114.67,91.97 C113.84,92.15 112.11,90.9 112.11,90.9 L114.8,97.84 C114.8,97.84 121.4,97.84 121.46,97.6 C121.52,97.36 116.93,76.6 116.93,76.13 C116.93,75.66 122.94,55.53 122.94,55.53 C122.94,55.53 114.41,55.4 114.24,55.7 Z" fill="#FFD61C"/>
  <path d="M76.55,74.82 C76.55,74.82 79.53,76.67 81.31,78.81 C82.88,80.69 84.88,83.87 84.88,83.87 L91.49,78.63 L107.09,79.34 C107.09,79.34 106.93,76.33 106.79,75.65 C106.61,74.76 106.19,73.63 106.19,73.63 L82.85,72.02 L76.55,74.82 Z" fill="#FFD61C"/>
  <path d="M51.06,66.66 C51.06,66.66 56,67.35 64.46,67.85 C71.55,68.27 76.79,68.62 78.99,67.49 C80.51,66.71 80.96,65.88 80.96,65.88 C80.96,65.88 78.76,61.18 77.86,60.64 C76.97,60.1 65.84,58.76 60.12,59.27 C55.35,59.69 51.06,66.66 51.06,66.66 Z" fill="#FFD61C"/>
  <path d="M81.69,83.76 C81.69,83.76 72.66,69.43 49.93,69.85 C27.21,70.28 23.15,87.34 23.15,87.34 L31.25,89.83 C31.25,89.83 31.68,92.1 30.5,92.39 C29.33,92.68 19.12,92.62 17.6,92.57 C14.92,92.47 14.78,90.61 14.78,90.61 C14.78,90.61 13.32,91.72 12.56,92.93 C11.8,94.14 11.41,95.39 11.41,95.39 C11.41,95.39 12.15,97.58 16.04,99.24 C19.93,100.91 31.01,103.14 46.7,103.04 C62.39,102.94 75.71,99.29 79.46,93.27 C83.22,87.27 81.69,83.76 81.69,83.76 Z M47,92.38 C46.18,93.03 38.77,93.3 37.6,92.24 C36.66,91.39 37.67,89.58 37.67,89.58 L40.95,87.53 C40.95,87.53 47.67,88.31 47.7,89.41 C47.72,90.35 47.58,91.92 47,92.38 Z M63.48,92.75 C62.19,93.16 56.79,93.28 55.62,93.16 C54.45,93.04 53.51,93.07 52.92,92.01 C52.33,90.95 52.69,89.17 52.69,89.17 L65.61,86.73 C65.61,86.73 65.62,88.81 65.49,90.17 C65.37,91.35 64.55,92.41 63.48,92.75 Z" fill="#FFD61C"/>
  <path d="M41.55,75.6 C40.64,76.37 37.1,89.33 37.67,89.58 C38.23,89.83 47.16,89.89 47.7,89.4 C48.24,88.91 49.44,75.76 49.04,75.36 C48.64,74.97 42.29,74.97 41.55,75.6 Z" fill="#5E6367"/>
  <path d="M53.84,75.88 C53.38,76.22 52.51,89.36 52.7,89.88 C52.94,90.54 55.33,90.39 58.82,90.39 C62.31,90.39 65.45,89.7 65.68,87.53 C65.94,85.08 65.79,81.13 65.68,79.47 C65.57,77.81 63.85,76.44 61.39,75.98 C59.53,75.65 54.45,75.42 53.84,75.88 Z" fill="#5E6367"/>
  <path d="M30,94.46 C29.52,93.9 23.02,94.22 22.74,99.09 C22.57,102.06 26.23,103.83 27.03,103.78 C27.83,103.73 28.4,101.89 29.2,99.32 C29.88,97.12 30.34,94.86 30,94.46 Z" fill="#5E6367"/>
  <path d="M16.22,89.66 C16.45,90.57 30.57,90.41 31.25,90 C31.82,89.66 37.08,72.91 36.85,72.57 C36.62,72.23 31.36,72.97 23.65,79.43 C18.9,83.41 16,88.75 16.22,89.66 Z" fill="#868686"/>
  <path d="M42,81.66 C42.99,81.95 43.89,79.95 44.8,79.49 C45.71,79.03 47.13,78.35 47.09,77.49 C47.03,76.46 44.17,75.66 43.03,76.58 C41.89,77.5 40.46,81.2 42,81.66 Z" fill="#C9C7C4"/>
  <path d="M55.44,77.66 C54.64,78.52 54.41,82.12 55.61,82.35 C56.81,82.58 57.38,80.98 58.41,80.23 C59.44,79.49 61,79.02 60.93,77.71 C60.87,76.69 56.87,76.11 55.44,77.66 Z" fill="#C9C7C4"/>
  <path d="M32.97,75.66 C32.19,74.95 27.89,77.55 24.85,80.4 C22,83.09 19.2,86.65 20,87.72 C21.31,89.49 24.12,84.86 27.26,82.06 C28.77,80.71 34.29,76.86 32.97,75.66 Z" fill="#C8C8C8"/>
  <path d="M107.58,63.24 C106.13,63.55 107.58,70.01 108.08,72.15 C108.58,74.3 110.01,77.38 110.01,77.38 L112.98,76 C112.98,76 112.04,71.16 111.05,68.35 C110.06,65.54 108.84,62.96 107.58,63.24 Z" fill="#999A9D"/>
  <path d="M110.71,79.92 C110.71,79.92 110.67,82.23 111.86,85.71 C113.01,89.11 114.54,92.06 115.88,91.64 C117.12,91.25 116.26,86.12 115.65,83.93 C115.04,81.74 113.69,78.95 113.69,78.95 L110.71,79.92 Z" fill="#999A9D"/>
  <path d="M110.93,75.38 C108.62,76.25 108.76,78.13 109.27,79.34 C109.64,80.22 111.16,81.46 112.94,80.66 C114.32,80.04 115.18,78.82 114.49,76.93 C114.05,75.7 112.76,74.69 110.93,75.38 Z" fill="#5E6367"/>
</svg>
